src/assets/selectIconsSpells/sacro_4.svg

<svg xmlns="http://www.w3.org/2000/svg" viewBox="0 0 512 512"><path d="M0 0h512v512H0z"/><path fill="#fff" d="M260.72 29.094c-54.533 0-98.97 21.704-98.97 48.312 0 26.61 44.437 48.28 98.97 48.28 54.53 0 98.967-21.67 98.967-48.28S315.25 29.094 260.72 29.094zm0 13.25c40.07 0 71.81 15.508 71.81 35.062s-31.74 35.47-71.81 35.47c-40.073 0-72.69-15.916-72.69-35.47 0-19.552 32.617-35.064 72.69-35.062zM86.53 57.187c-13.242-.094-32.234 14.59-42.31 37.688-43.3 99.244-9.583 359.695 87.874 351.97-22.002-50.492-43.8-107.983-56.72-168.75 26.337 72.494 72.33 135.58 117.845 120.186-32.017-40.185-66.048-87.265-90.032-140.342 35.016 59.175 85.37 105.853 123.03 85.5-29.742-26.583-61.568-57.524-88.812-93.25 39.647 37.38 87.092 61.34 112.25 37.75-47.69-21.07-94.37-53.67-125.062-89.75-16.312-19.176-28.195-39.39-32.72-60-2.26-10.306-2.508-20.796-.468-30.938.02-.095.043-.186.063-.28.007-.044.022-.083.03-.126 4.05-21.265 15.043-35.413 4.5-45.97-2.484-2.487-5.76-3.66-9.47-3.687zm347.658 0c-3.71.027-6.954 1.2-9.438 3.688-8.176 8.186-3.416 18.564 1.03 32.72 6.153 14.187 7.144 29.566 3.845 44.593-4.524 20.61-16.44 40.824-32.75 60-30.798 36.206-77.67 68.907-125.53 89.968 25.22 23.208 72.482-.71 112-37.97-27.245 35.728-59.07 66.67-88.814 93.25 37.662 20.355 88.016-26.323 123.033-85.498-23.985 53.077-58.016 100.157-90.032 140.343 45.515 15.395 91.478-47.69 117.814-120.186-12.918 60.768-34.686 118.26-56.688 168.75 97.457 7.726 131.142-252.725 87.844-351.97-10.077-23.097-29.07-37.78-42.313-37.686zm-22.22 73.97c-100.397 68.228-200.733 82.462-301.25 5.468 4.02 15.655 13.89 32.733 28.126 49.47 28.922 34 75.48 66.378 121.906 86.31 46.426-19.932 92.984-52.31 121.906-86.31 14.98-17.613 25.138-35.594 28.72-51.907.223-1.02.416-2.027.593-3.032z"/></svg>

<?xml version="1.0" encoding="UTF-8" standalone="no"?>
<!DOCTYPE svg PUBLIC "-//W3C//DTD SVG 1.1//EN" "http://www.w3.org/Graphics/SVG/1.1/DTD/svg11.dtd">
<svg width="100%" height="100%" viewBox="0 0 512 512" version="1.1" xmlns="http://www.w3.org/2000/svg" xmlns:xlink="http://www.w3.org/1999/xlink" xml:space="preserve" xmlns:serif="http://www.serif.com/" style="fill-rule:evenodd;clip-rule:evenodd;stroke-linejoin:round;stroke-miterlimit:2;">
    <rect x="0" y="0" width="512" height="512" style="fill-rule:nonzero;"/>
    <path d="M86.53,57.187C73.288,57.093 54.296,71.777 44.22,94.875C0.92,194.119 34.637,454.57 132.094,446.845C110.092,396.353 88.294,338.862 75.374,278.095C101.711,350.589 147.704,413.675 193.219,398.281C161.202,358.096 127.171,311.016 103.187,257.939C138.203,317.114 188.557,363.792 226.217,343.439C196.475,316.856 164.649,285.915 137.405,250.189C177.052,287.569 224.497,311.529 249.655,287.939C201.965,266.869 155.285,234.269 124.593,198.189C108.281,179.013 96.398,158.799 91.873,138.189C89.613,127.883 89.365,117.393 91.405,107.251C91.425,107.156 91.448,107.065 91.468,106.971C91.475,106.927 91.49,106.888 91.498,106.845C95.548,85.58 106.541,71.432 95.998,60.875C93.514,58.388 90.238,57.215 86.528,57.188L86.53,57.187ZM434.188,57.187C430.478,57.214 427.234,58.387 424.75,60.875C416.574,69.061 421.334,79.439 425.78,93.595C431.933,107.782 432.924,123.161 429.625,138.188C425.101,158.798 413.185,179.012 396.875,198.188C366.077,234.394 319.205,267.095 271.345,288.156C296.565,311.364 343.827,287.446 383.345,250.186C356.1,285.914 324.275,316.856 294.531,343.436C332.193,363.791 382.547,317.113 417.564,257.938C393.579,311.015 359.548,358.095 327.532,398.281C373.047,413.676 419.01,350.591 445.346,278.095C432.428,338.863 410.66,396.355 388.658,446.845C486.115,454.571 519.8,194.12 476.502,94.875C466.425,71.778 447.432,57.095 434.189,57.189L434.188,57.187Z" style="fill:white;fill-rule:nonzero;"/>
    <path d="M260.72,29.094C315.25,29.094 359.687,50.796 359.687,77.406C359.687,104.016 315.25,125.686 260.72,125.686C250.964,125.686 241.532,124.992 232.619,123.701C191.71,117.775 161.75,99.256 161.75,77.406C161.75,50.798 206.187,29.094 260.72,29.094ZM260.72,42.344C220.647,42.342 188.03,57.854 188.03,77.406C188.03,96.96 220.647,112.876 260.72,112.876C300.79,112.876 332.53,96.96 332.53,77.406C332.53,57.852 300.79,42.344 260.72,42.344Z" style="fill:rgb(244,255,0);"/>
    <path d="M411.968,131.157C411.791,132.162 411.599,133.168 411.376,134.188C407.794,150.501 397.636,168.482 382.656,186.095C353.734,220.095 307.176,252.473 260.75,272.405C214.324,252.473 167.766,220.095 138.844,186.095C124.608,169.358 114.738,152.28 110.718,136.625C211.235,213.619 311.571,199.385 411.968,131.157Z" style="fill:rgb(114,217,204);"/>
</svg>
